icons/fetus.svg

<svg width="48" height="48" viewBox="0 0 48 48" fill="none" xmlns="http://www.w3.org/2000/svg">
<path fill-rule="evenodd" clip-rule="evenodd" d="M32.5 23C33.8807 23 35 21.8807 35 20.5C35 19.1193 33.8807 18 32.5 18C31.1193 18 30 19.1193 30 20.5C30 21.8807 31.1193 23 32.5 23ZM32.5 25C34.9853 25 37 22.9853 37 20.5C37 18.0147 34.9853 16 32.5 16C30.0147 16 28 18.0147 28 20.5C28 22.9853 30.0147 25 32.5 25Z" fill="black"/>
<path fill-rule="evenodd" clip-rule="evenodd" d="M17.2444 38.5039C21.0911 40.2956 25.4919 40.4858 29.4788 39.0327C33.4658 37.5796 36.7122 34.6023 38.5039 30.7556C40.2956 26.909 40.4858 22.5081 39.0327 18.5212C37.5796 14.5342 34.6023 11.2879 30.7556 9.49615C26.909 7.70446 22.5081 7.51422 18.5212 8.9673C14.5342 10.4204 11.2879 13.3977 9.49615 17.2444C7.70446 21.0911 7.51422 25.4919 8.9673 29.4788C10.4204 33.4658 13.3977 36.7122 17.2444 38.5039L16.4 40.3168C12.0725 38.3012 8.72292 34.649 7.08821 30.1637C5.4535 25.6784 5.66751 20.7274 7.68317 16.4C9.69883 12.0725 13.351 8.72292 17.8363 7.08821C22.3216 5.4535 27.2726 5.66751 31.6001 7.68317C35.9276 9.69883 39.2771 13.351 40.9118 17.8363C42.5465 22.3216 42.3325 27.2726 40.3168 31.6001C38.3012 35.9276 34.649 39.2771 30.1637 40.9118C25.6784 42.5465 20.7274 42.3325 16.4 40.3168L17.2444 38.5039Z" fill="black"/>
<path d="M13.4754 19.8825L14.1107 20.6548L14.1107 20.6548L13.4754 19.8825ZM14.2227 19.2677L13.5873 18.4955L13.5873 18.4955L14.2227 19.2677ZM15.5586 22.9359L15.8161 23.9022H15.8161L15.5586 22.9359ZM17.004 23.3713L16.1449 23.883L16.1449 23.883L17.004 23.3713ZM17.2154 26.2721C17.4412 26.7761 18.0329 27.0016 18.5369 26.7757C19.0409 26.5499 19.2663 25.9582 19.0405 25.4542L17.2154 26.2721ZM17.2808 23.9761L16.3414 24.3188V24.3188L17.2808 23.9761ZM29.9273 27.1088L30.8469 26.716L29.9273 27.1088ZM27.5785 25.9604L27.8319 26.9277L27.8332 26.9274L27.5785 25.9604ZM29.82 29.5874L28.9158 29.1603L29.82 29.5874ZM28.7246 31.1003L29.4449 31.7939L28.7246 31.1003ZM25.7958 33.4404L25.2403 32.6089H25.2403L25.7958 33.4404ZM22.8691 35.2059L23.3477 36.084H23.3477L22.8691 35.2059ZM21.8336 35.7424L21.4003 34.8412L21.4003 34.8412L21.8336 35.7424ZM21.4398 35.9192L21.0666 34.9914L21.0666 34.9914L21.4398 35.9192ZM21.1506 36.0184L20.8841 35.0546L20.884 35.0546L21.1506 36.0184ZM20.7494 36.0893L20.6727 35.0922L20.7494 36.0893ZM20.1913 36.0549L19.9921 37.0348H19.9921L20.1913 36.0549ZM18.9778 35.2817L19.7821 34.6875L19.7821 34.6874L18.9778 35.2817ZM18.8465 35.0804L19.717 34.5881L19.7137 34.5824L18.8465 35.0804ZM18.8079 35.0107L17.9265 35.483L17.9265 35.483L18.8079 35.0107ZM18.7581 34.9149L17.867 35.3688L17.867 35.3688L18.7581 34.9149ZM18.6449 34.6884L19.5415 34.2455L18.6449 34.6884ZM18.2989 33.9816L17.4 34.4197H17.4L18.2989 33.9816ZM18.13 33.6349L19.029 33.197L19.029 33.197L18.13 33.6349ZM17.2904 31.9167L16.3929 32.3578L16.3929 32.3578L17.2904 31.9167ZM16.5915 30.5084L17.4848 30.059C17.2432 29.5787 16.6649 29.3754 16.1759 29.5989L16.5915 30.5084ZM16.0048 30.7784L16.4239 31.6863L16.4239 31.6863L16.0048 30.7784ZM14.7428 31.346L15.1139 32.2746H15.1139L14.7428 31.346ZM13.2583 27.6316L13.6294 28.5602H13.6294L13.2583 27.6316ZM14.1301 27.2378L14.5497 28.1455H14.5497L14.1301 27.2378ZM15.0758 26.8034L14.6623 25.8929H14.6623L15.0758 26.8034ZM16.2072 26.3105L15.8331 25.3832H15.8331L16.2072 26.3105ZM16.7237 26.1217L17.0209 27.0765L17.0209 27.0765L16.7237 26.1217ZM17.0865 26.0316L17.2608 27.0163H17.2608L17.0865 26.0316ZM17.4389 25.9969L17.4212 24.9971H17.4212L17.4389 25.9969ZM18.2536 26.1475L17.8767 27.0737L18.2536 26.1475ZM18.8796 26.5496L18.1952 27.2788L18.1952 27.2788L18.8796 26.5496ZM19.0739 26.7582L19.8481 26.1252L19.8481 26.1252L19.0739 26.7582ZM19.2369 26.9815L20.0724 26.4321L20.0724 26.4321L19.2369 26.9815ZM19.4262 27.2959L20.2967 26.8039H20.2967L19.4262 27.2959ZM19.8302 28.053L18.9415 28.5114H18.9415L19.8302 28.053ZM20.8802 30.1523L19.9827 30.5934L20.8802 30.1523ZM21.4888 31.3963L20.5899 31.8346C20.711 32.0828 20.9293 32.27 21.1932 32.3516C21.4571 32.4333 21.743 32.4021 21.9831 32.2656L21.4888 31.3963ZM23.574 30.1142L23.0185 29.2827L23.0185 29.2827L23.574 30.1142ZM23.7046 30.0264L24.2649 30.8547C24.5235 30.6798 24.6855 30.3942 24.7031 30.0826C24.7206 29.7709 24.5916 29.469 24.3543 29.2662L23.7046 30.0264ZM23.2122 29.3969L24.106 28.9485L24.106 28.9485L23.2122 29.3969ZM21.1404 24.7518L20.2136 25.1275H20.2136L21.1404 24.7518ZM22.2426 22.147L21.867 21.2203L22.2426 22.147ZM24.8474 23.2492L25.7742 22.8736L24.8474 23.2492ZM25.862 25.5474L24.9491 25.9554L25.862 25.5474ZM26.1995 26.301L25.2872 26.7104C25.4828 27.1463 25.9594 27.383 26.4249 27.2753L26.1995 26.301ZM27.1297 26.0755L27.3741 27.0452H27.3741L27.1297 26.0755ZM27.4584 25.9916L27.7088 26.9598L27.7099 26.9595L27.4584 25.9916ZM27.5489 25.9681L27.8003 26.936L27.8023 26.9355L27.5489 25.9681ZM14.1107 20.6548L14.858 20.04L13.5873 18.4955L12.8401 19.1103L14.1107 20.6548ZM15.3011 21.9696C14.5455 22.171 14.0513 21.8745 13.8611 21.5957C13.7644 21.454 13.7358 21.3118 13.7551 21.1842C13.7735 21.0621 13.8488 20.8703 14.1107 20.6548L12.8401 19.1103C12.2508 19.5951 11.8796 20.2101 11.7775 20.8855C11.6763 21.5554 11.8532 22.2014 12.2089 22.7228C12.9236 23.7704 14.3224 24.3002 15.8161 23.9022L15.3011 21.9696ZM17.8631 22.8595C17.6978 22.5819 17.4042 22.1053 16.8194 21.9074C16.2969 21.7305 15.7461 21.8511 15.3011 21.9696L15.8161 23.9022C16.0223 23.8472 16.143 23.8258 16.2129 23.8194C16.2785 23.8134 16.2493 23.8259 16.1781 23.8018C16.142 23.7895 16.1078 23.7721 16.0787 23.7524C16.0511 23.7335 16.0366 23.7184 16.0349 23.7166C16.0342 23.7158 16.0435 23.7257 16.0638 23.7549C16.0842 23.7842 16.1102 23.8248 16.1449 23.883L17.8631 22.8595ZM14.858 20.04C15.5896 19.4381 15.9597 18.6806 15.9867 17.8415C16.0118 17.0598 15.7361 16.3048 15.3965 15.6465C15.0519 14.9786 14.5897 14.3135 14.1354 13.6969C13.6581 13.0491 13.2219 12.4958 12.8172 11.923L11.1838 13.077C11.5951 13.6592 12.1061 14.3143 12.5252 14.8832C12.9673 15.4833 13.3507 16.0433 13.6191 16.5635C13.8924 17.0934 13.9969 17.4896 13.9877 17.7772C13.9803 18.0074 13.9013 18.2372 13.5873 18.4955L14.858 20.04ZM19.0405 25.4542C18.7626 24.834 18.3121 23.885 18.2203 23.6334L16.3414 24.3188C16.4651 24.6579 16.9944 25.7791 17.2154 26.2721L19.0405 25.4542ZM16.1449 23.883C16.2135 23.9983 16.2758 24.1389 16.3414 24.3188L18.2203 23.6334C18.1337 23.396 18.0218 23.1258 17.8631 22.8595L16.1449 23.883ZM30.8469 26.716C30.2623 25.3474 28.7628 24.6142 27.3237 24.9934L27.8332 26.9274C28.3129 26.801 28.8128 27.0454 29.0076 27.5016L30.8469 26.716ZM30.7242 30.0146C31.0673 29.2881 31.4183 28.0539 30.8469 26.716L29.0076 27.5016C29.2668 28.1084 29.1297 28.7075 28.9158 29.1603L30.7242 30.0146ZM29.4449 31.7939C29.8779 31.3442 30.3806 30.7419 30.7242 30.0146L28.9158 29.1603C28.7043 29.6081 28.3672 30.0297 28.0042 30.4067L29.4449 31.7939ZM26.3512 34.272C27.3948 33.5749 28.5629 32.71 29.4449 31.7939L28.0042 30.4067C27.2719 31.1672 26.2448 31.9379 25.2403 32.6089L26.3512 34.272ZM23.3477 36.084C24.1817 35.6295 25.2757 34.9904 26.3512 34.272L25.2403 32.6089C24.2249 33.2872 23.184 33.8954 22.3906 34.3279L23.3477 36.084ZM22.267 36.6437C22.5582 36.5036 22.9316 36.3108 23.3477 36.084L22.3906 34.3279C21.9942 34.5439 21.6522 34.7201 21.4003 34.8412L22.267 36.6437ZM21.813 36.8469C21.9681 36.7845 22.1292 36.7099 22.267 36.6437L21.4003 34.8412C21.2772 34.9004 21.1617 34.9532 21.0666 34.9914L21.813 36.8469ZM21.4172 36.9823C21.5997 36.9318 21.749 36.8727 21.813 36.8469L21.0666 34.9914C21.0249 35.0082 20.9576 35.0343 20.8841 35.0546L21.4172 36.9823ZM20.826 37.0863C21.1183 37.0639 21.3433 37.0027 21.4172 36.9823L20.884 35.0546C20.8555 35.0625 20.7749 35.0844 20.6727 35.0922L20.826 37.0863ZM19.9921 37.0348C20.3752 37.1127 20.6857 37.0971 20.826 37.0863L20.6727 35.0922C20.6254 35.0959 20.5201 35.1013 20.3905 35.0749L19.9921 37.0348ZM18.1736 35.876C18.8044 36.7298 19.651 36.9655 19.9921 37.0348L20.3905 35.0749C20.2712 35.0507 19.991 34.9702 19.7821 34.6875L18.1736 35.876ZM17.976 35.5726C17.9889 35.5953 18.0636 35.7272 18.1736 35.876L19.7821 34.6874C19.7641 34.6632 19.7473 34.6377 19.7342 34.6168C19.728 34.6068 19.7232 34.5989 19.7204 34.594C19.719 34.5916 19.718 34.59 19.7176 34.5892C19.7172 34.5886 19.7171 34.5885 19.7169 34.5881L17.976 35.5726ZM17.9265 35.483C17.9373 35.5032 17.9563 35.5382 17.9793 35.5783L19.7137 34.5824C19.7041 34.5657 19.6952 34.5494 19.6893 34.5384L17.9265 35.483ZM17.867 35.3688C17.8831 35.4004 17.9042 35.4415 17.9265 35.483L19.6893 34.5384C19.6767 34.5149 19.6628 34.488 19.6491 34.4611L17.867 35.3688ZM17.7483 35.1313C17.7922 35.2202 17.8333 35.3026 17.867 35.3688L19.6491 34.4611C19.6211 34.4061 19.5845 34.3325 19.5415 34.2455L17.7483 35.1313ZM17.4 34.4197C17.5387 34.7041 17.6592 34.951 17.7483 35.1313L19.5415 34.2455C19.455 34.0706 19.3367 33.8283 19.1978 33.5434L17.4 34.4197ZM17.231 34.0729C17.29 34.1939 17.3465 34.31 17.4 34.4197L19.1978 33.5434C19.1445 33.4339 19.088 33.3181 19.029 33.197L17.231 34.0729ZM16.3929 32.3578C16.6885 32.9591 16.9816 33.561 17.231 34.0729L19.029 33.197C18.7798 32.6855 18.4852 32.0806 18.1878 31.4756L16.3929 32.3578ZM15.6982 30.9578C15.9129 31.3848 16.1519 31.8675 16.3929 32.3578L18.1878 31.4756C17.9455 30.9825 17.7035 30.4937 17.4848 30.059L15.6982 30.9578ZM16.4239 31.6863C16.6231 31.5944 16.8218 31.5027 17.0072 31.418L16.1759 29.5989C15.9864 29.6855 15.7843 29.7788 15.5858 29.8704L16.4239 31.6863ZM15.1139 32.2746C15.3857 32.1659 15.9238 31.9171 16.4239 31.6863L15.5858 29.8704C15.0539 30.1159 14.5811 30.3337 14.3716 30.4174L15.1139 32.2746ZM11.2148 30.6021C11.8297 32.1407 13.5753 32.8894 15.1139 32.2746L14.3716 30.4174C13.8588 30.6223 13.2769 30.3727 13.0719 29.8599L11.2148 30.6021ZM12.8872 26.703C11.3487 27.3179 10.5999 29.0636 11.2148 30.6021L13.0719 29.8599C12.867 29.3471 13.1166 28.7652 13.6294 28.5602L12.8872 26.703ZM13.7104 26.3301C13.2814 26.5284 13.002 26.6571 12.8872 26.703L13.6294 28.5602C13.8077 28.4889 14.1555 28.3277 14.5497 28.1455L13.7104 26.3301ZM14.6623 25.8929C14.3131 26.0515 13.9879 26.2018 13.7104 26.3301L14.5497 28.1455C14.8276 28.017 15.1471 27.8693 15.4893 27.7139L14.6623 25.8929ZM15.8331 25.3832C15.4793 25.5259 15.055 25.7146 14.6623 25.8929L15.4893 27.7139C15.8785 27.5372 16.2699 27.3636 16.5813 27.2379L15.8331 25.3832ZM16.4265 25.1669C16.2153 25.2326 16.0022 25.3149 15.8331 25.3832L16.5813 27.2379C16.7341 27.1763 16.8879 27.1179 17.0209 27.0765L16.4265 25.1669ZM16.9123 25.0469C16.7017 25.0841 16.5254 25.1361 16.4265 25.1669L17.0209 27.0765C17.0845 27.0567 17.1697 27.0324 17.2608 27.0163L16.9123 25.0469ZM17.4212 24.9971C17.198 25.001 17.0172 25.0283 16.9123 25.0469L17.2608 27.0163C17.3055 27.0084 17.3747 26.9982 17.4566 26.9968L17.4212 24.9971ZM18.6305 25.2212C18.0755 24.9954 17.5954 24.994 17.4212 24.9971L17.4566 26.9968C17.5197 26.9956 17.6864 26.9963 17.8767 27.0737L18.6305 25.2212ZM19.5639 25.8205C19.4726 25.7348 19.1472 25.4315 18.6305 25.2212L17.8767 27.0737C18.0529 27.1454 18.1646 27.2501 18.1952 27.2788L19.5639 25.8205ZM19.8481 26.1252C19.7958 26.0613 19.6988 25.9471 19.5639 25.8205L18.1952 27.2788C18.2433 27.3239 18.279 27.3657 18.2998 27.3911L19.8481 26.1252ZM20.0724 26.4321C20.0325 26.3714 19.954 26.2548 19.8481 26.1252L18.2998 27.3911C18.3427 27.4437 18.3779 27.4953 18.4013 27.5309L20.0724 26.4321ZM20.2967 26.8039C20.238 26.6999 20.159 26.5639 20.0724 26.4321L18.4013 27.5309C18.4511 27.6067 18.5043 27.6972 18.5556 27.788L20.2967 26.8039ZM20.719 27.5946C20.5683 27.3024 20.4212 27.0241 20.2967 26.8039L18.5556 27.788C18.6609 27.9742 18.7939 28.2253 18.9415 28.5114L20.719 27.5946ZM21.7777 29.7112C21.4079 28.9588 21.0252 28.1882 20.719 27.5946L18.9415 28.5114C19.2383 29.0868 19.6138 29.8428 19.9827 30.5934L21.7777 29.7112ZM22.3876 30.9581C22.1961 30.5652 21.9875 30.1381 21.7777 29.7112L19.9827 30.5934C20.1912 31.0175 20.3988 31.4425 20.5899 31.8346L22.3876 30.9581ZM23.0185 29.2827C22.3283 29.7437 21.6138 30.1749 20.9945 30.527L21.9831 32.2656C22.6345 31.8952 23.3912 31.4389 24.1294 30.9458L23.0185 29.2827ZM23.1444 29.1981C23.1027 29.2263 23.0608 29.2545 23.0185 29.2827L24.1294 30.9458C24.1748 30.9155 24.22 30.8851 24.2649 30.8547L23.1444 29.1981ZM22.3184 29.8454C22.5255 30.2581 22.7951 30.5645 23.055 30.7867L24.3543 29.2662C24.2666 29.1913 24.1768 29.0895 24.106 28.9485L22.3184 29.8454ZM20.2136 25.1275C20.433 25.6685 22.1823 29.574 22.3184 29.8454L24.106 28.9485C24.1062 28.9487 24.0983 28.9326 24.078 28.889C24.0598 28.8499 24.0358 28.7976 24.0064 28.7334C23.9478 28.6051 23.8698 28.4332 23.7784 28.2308C23.5957 27.8263 23.3609 27.3035 23.1231 26.7715C22.642 25.695 22.1646 24.6165 22.0672 24.3762L20.2136 25.1275ZM21.867 21.2203C20.3315 21.8427 19.5912 23.592 20.2136 25.1275L22.0672 24.3762C21.8597 23.8644 22.1064 23.2812 22.6183 23.0738L21.867 21.2203ZM25.7742 22.8736C25.1518 21.3381 23.4025 20.5978 21.867 21.2203L22.6183 23.0738C23.1301 22.8663 23.7132 23.113 23.9207 23.6249L25.7742 22.8736ZM26.775 25.1394C26.294 24.0631 25.847 23.0531 25.7742 22.8736L23.9207 23.6249C24.0106 23.8467 24.4786 24.9029 24.9491 25.9554L26.775 25.1394ZM27.1119 25.8916C27.0045 25.6523 26.8902 25.3971 26.775 25.1394L24.9491 25.9554C25.0647 26.214 25.1794 26.4702 25.2872 26.7104L27.1119 25.8916ZM26.8854 25.1058C26.6319 25.1696 26.3042 25.2504 25.9741 25.3268L26.4249 27.2753C26.7718 27.195 27.1131 27.1109 27.3741 27.0452L26.8854 25.1058ZM27.2081 25.0234C27.131 25.0434 27.0197 25.0719 26.8854 25.1058L27.3741 27.0452C27.513 27.0102 27.6283 26.9806 27.7088 26.9598L27.2081 25.0234ZM27.2975 25.0002L27.207 25.0237L27.7099 26.9595L27.8003 26.936L27.2975 25.0002ZM27.325 24.993L27.2955 25.0007L27.8023 26.9355L27.8319 26.9277L27.325 24.993Z" fill="black"/>
</svg>

<svg
  xmlns="http://www.w3.org/2000/svg"
  width="24"
  height="24"
  viewBox="0 0 24 24"
  fill="none"
  stroke="currentColor"
  stroke-width="2"
  stroke-linecap="round"
  stroke-linejoin="round"
>
  <path
    fill-rule="evenodd"
    d="M32.5 23a2.5 2.5 0 1 0 0-5 2.5 2.5 0 0 0 0 5m0 2a4.5 4.5 0 1 0 0-9 4.5 4.5 0 0 0 0 9"
    clip-rule="evenodd"
  />
  <path
    fill-rule="evenodd"
    d="M17.244 38.504A16 16 0 1 0 30.755 9.497a16 16 0 0 0-13.51 29.007l-.845 1.813A18 18 0 1 1 31.6 7.683a18 18 0 0 1-15.2 32.634z"
    clip-rule="evenodd"
  />
  <path d="m13.475 19.883.636.772zm.748-.615-.636-.773zm1.336 3.668.257.966zm1.445.435-.86.512zm.211 2.901a1 1 0 1 0 1.826-.818zm.066-2.296-.94.343zm12.646 3.133.92-.393zm-2.349-1.149.254.968h.001zm2.242 3.627-.904-.427zM28.725 31.1l.72.694zm-2.93 2.34-.555-.831zm-2.926 1.766.479.878zm-1.035.536-.434-.9zm-.394.177-.373-.928zm-.29.1-.266-.964zm-.4.07-.077-.997zm-.559-.034-.199.98zm-1.213-.773.804-.594zm-.132-.202.871-.492-.003-.006zm-.038-.07-.881.473zm-.05-.095-.891.454zm-.113-.227.896-.443zm-.346-.706-.899.438zm-.169-.347.899-.438zm-.84-1.718-.897.44zm-.698-1.409.893-.449a1 1 0 0 0-1.31-.46zm-.587.27.419.908zm-1.262.568.37.929zm-1.485-3.714.371.928zm.872-.394.42.907zm.946-.435-.414-.91zm1.131-.492-.374-.928zm.517-.19.297.956zm.363-.09.174.985zm.352-.034-.018-1zm.815.15-.377.927zm.626.403-.685.729zm.194.208.774-.633zm.163.224.835-.55zm.19.314.87-.492zm.403.757-.888.458zm1.05 2.1-.897.44zm.609 1.243-.9.439a1 1 0 0 0 1.394.43zm2.085-1.282-.556-.831zm.13-.088.56.829a1 1 0 0 0 .09-1.589zm-.492-.63.894-.448zm-2.072-4.644-.926.376zm1.103-2.605-.376-.927zm2.604 1.102.927-.375zm1.015 2.298-.913.408zm.338.754-.913.41a1 1 0 0 0 1.138.564zm.93-.225.244.97zm.328-.084.25.968h.002zm.09-.024.252.968h.002zm-13.437-5.313.747-.615-1.27-1.544-.748.614zm1.19 1.315c-.755.201-1.25-.095-1.44-.374a.57.57 0 0 1-.106-.412c.018-.122.094-.314.356-.53l-1.27-1.544c-.59.485-.961 1.1-1.063 1.776a2.57 2.57 0 0 0 .43 1.837c.716 1.047 2.114 1.577 3.608 1.18zm2.562.89c-.165-.278-.459-.755-1.044-.953-.522-.177-1.073-.056-1.518.063l.515 1.932c.206-.055.327-.076.397-.083.066-.006.036.007-.035-.017a.4.4 0 0 1-.143-.085q0-.003.029.038c.02.03.046.07.08.128zm-3.005-2.82c.732-.602 1.102-1.36 1.129-2.198.025-.782-.25-1.537-.59-2.195-.345-.668-.807-1.334-1.262-1.95-.477-.648-.913-1.201-1.318-1.774l-1.633 1.154c.411.582.922 1.237 1.341 1.806.442.6.826 1.16 1.094 1.68.273.53.378.927.369 1.214-.008.23-.087.46-.4.718zm4.183 5.414c-.278-.62-.729-1.569-.82-1.82l-1.88.685c.124.339.653 1.46.874 1.953zm-2.896-1.571c.069.115.13.256.196.436l1.88-.686a4.5 4.5 0 0 0-.358-.773zm14.702 2.833a3 3 0 0 0-3.523-1.723l.51 1.934a1 1 0 0 1 1.174.575zm-.123 3.299c.343-.727.694-1.961.123-3.299l-1.84.786c.26.606.123 1.206-.091 1.658zm-1.28 1.779c.434-.45.937-1.052 1.28-1.78l-1.808-.854c-.212.448-.549.87-.912 1.247zm-3.093 2.478c1.044-.697 2.212-1.562 3.094-2.478l-1.44-1.387c-.733.76-1.76 1.53-2.765 2.202zm-3.003 1.812a40 40 0 0 0 3.003-1.812l-1.11-1.663a38 38 0 0 1-2.85 1.719zm-1.081.56c.291-.14.665-.333 1.08-.56l-.956-1.756c-.397.216-.739.392-.99.513zm-.454.203c.155-.062.316-.137.454-.203L21.4 34.84c-.123.06-.238.112-.333.15zm-.396.135c.183-.05.332-.11.396-.135l-.746-1.856a2 2 0 0 1-.183.064zm-.591.104c.292-.022.517-.083.591-.104l-.533-1.927c-.029.008-.11.03-.211.037zm-.834-.051c.383.078.694.062.834.051l-.153-1.994c-.048.004-.153.01-.282-.017zm-1.818-1.159a3 3 0 0 0 1.818 1.159l.398-1.96c-.119-.024-.399-.105-.608-.388zm-.198-.303c.013.022.088.154.198.303l1.608-1.189a1 1 0 0 1-.062-.093l-.002-.005h-.001zm-.05-.09.053.095 1.735-.996-.025-.044zm-.059-.114.06.114 1.762-.945-.04-.077zm-.119-.238.119.238 1.782-.908-.108-.215zm-.348-.711.348.711 1.793-.886-.343-.702zm-.169-.347.169.347 1.798-.877-.169-.346zm-.838-1.715c.296.601.589 1.203.838 1.715l1.798-.876c-.25-.512-.544-1.116-.841-1.721zm-.695-1.4c.215.427.454.91.695 1.4l1.795-.882c-.242-.493-.485-.982-.703-1.417zm.726.728.583-.268-.831-1.82-.59.272zm-1.31.589c.272-.11.81-.358 1.31-.589l-.838-1.816c-.532.246-1.005.464-1.214.547zm-3.9-1.673a3 3 0 0 0 3.9 1.673l-.742-1.858a1 1 0 0 1-1.3-.557zm1.673-3.899a3 3 0 0 0-1.672 3.9l1.857-.743a1 1 0 0 1 .557-1.3zm.823-.373c-.429.198-.708.327-.823.373l.742 1.857c.179-.071.527-.232.92-.415zm.952-.437c-.349.159-.674.309-.952.437l.84 1.816c.278-.129.597-.277.94-.432zm1.171-.51c-.354.143-.778.332-1.17.51l.826 1.82c.39-.176.78-.35 1.092-.475zm.594-.216a8 8 0 0 0-.594.216l.748 1.855c.153-.062.307-.12.44-.162zm.485-.12a4 4 0 0 0-.485.12l.594 1.91c.063-.02.149-.045.24-.06zm.51-.05a3 3 0 0 0-.51.05l.349 1.97c.044-.009.114-.019.196-.02zm1.209.224a3.1 3.1 0 0 0-1.21-.224l.036 2c.063-.001.23 0 .42.077zm.933.6a3 3 0 0 0-.933-.6l-.754 1.853c.176.071.288.176.318.205zm.284.304a3 3 0 0 0-.284-.305l-1.369 1.459c.048.045.084.087.105.112zm.224.307a4 4 0 0 0-.224-.307L18.3 27.391c.043.053.078.104.101.14zm.225.372a7 7 0 0 0-.225-.372l-1.67 1.099c.05.076.102.166.154.257zm.422.79c-.15-.292-.298-.57-.422-.79l-1.741.984c.105.186.238.437.386.723zm1.059 2.117c-.37-.752-.753-1.523-1.059-2.116l-1.777.916c.296.576.672 1.332 1.04 2.082zm.61 1.247c-.192-.393-.4-.82-.61-1.247l-1.795.882.607 1.242zm.63-1.675c-.69.46-1.404.892-2.024 1.244l.99 1.739c.65-.37 1.407-.827 2.145-1.32zm.126-.085-.125.085 1.11 1.663.136-.091zm-.826.647c.207.413.477.72.737.942l1.3-1.52a1 1 0 0 1-.249-.319zm-2.104-4.717c.219.54 1.968 4.446 2.104 4.717l1.788-.896-.028-.06-.072-.156-.228-.502-.655-1.46a154 154 0 0 1-1.056-2.395zm1.653-3.908a3 3 0 0 0-1.653 3.908l1.853-.752a1 1 0 0 1 .551-1.302zm3.907 1.654a3 3 0 0 0-3.907-1.654l.751 1.854a1 1 0 0 1 1.303.55zm1.001 2.265a169 169 0 0 1-1-2.265l-1.854.75c.09.223.558 1.279 1.028 2.331zm.337.753-.337-.753-1.826.816.338.755zm-.227-.786c-.253.064-.58.144-.91.22l.45 1.95c.347-.081.688-.165.95-.23zm.323-.083-.323.083.49 1.94.334-.086zm.09-.023-.091.024.503 1.935.09-.023zm.027-.007-.03.008.507 1.935.03-.008z" />
</svg>
